!!!COM: Music21
!!!OTL: barndance_Macs-Corner
!!!OMV: barndance_Macs-Corner
**kern
*clefG2
*k[f#c#]
*D:
*M4/4
=1
8ff#L
8aJ
8ddL
8ff#J
8aaL
8bbJ
8aaL
8ff#J
=
8ggL
8bJ
8eeL
8ggJ
4bb
8aaL
8ggJ
=
8ff#L
8aJ
8ddL
8ff#J
8aaL
8bbJ
8aaL
8ff#J
=
8eeL
8ddJ
8cc#L
8ddJ
8eeL
8ff#J
8ggL
8eeJ
=
8ff#L
8aJ
8ddL
8ff#J
8aaL
8bbJ
8aaL
8ff#J
!!linebreak:original
=
8ggL
8bJ
8eeL
8ggJ
4bb
8aaL
8ggJ
=
8ff#L
8aJ
8ddL
8ff#J
8eeL
8ddJ
8cc#L
8eeJ
=
12ddL
12ee
12ddJ
8cc#L
8eeJ
4dd
8aaL
8ggJ
=||
*M4/4
8ff#L
8aJ
8ddL
8ff#J
8aaL
8bbJ
8aaL
8ff#J
=
8ggL
8bJ
8eeL
8ggJ
4bb
8aaL
8ggJ
!!linebreak:original
=
8ff#L
8aJ
8ddL
8ff#J
8aaL
8bbJ
8aaL
8ff#J
=
8eeL
8ddJ
8cc#L
8ddJ
8eeL
8ff#J
8ggL
8eeJ
=
8ff#L
8aJ
8ddL
8ff#J
8aaL
8bbJ
8aaL
8ff#J
=
8ggL
8bJ
8eeL
8ggJ
4bb
8aaL
8ggJ
=
8ff#L
8aJ
8ddL
8ff#J
8eeL
8ddJ
8cc#L
8eeJ
!!linebreak:original
=
12ddL
12ee
12ddJ
8cc#L
8eeJ
2dd
=||
4b
8ddL
8bJ
4.a
8dd
=
4b
8ddL
8bJ
4.a
8dd
=
4b
8ddL
8bJ
4a
8ddL
8eeJ
=
4ff#
8ddL
8ff#J
8eeL
8ff#J
8ddL
8cc#J
=
4b
8ddL
8bJ
4.a
8dd
!!linebreak:original
=
4b
8ddL
8bJ
4a
8ddL
8eeJ
=
4ff#
8ddL
8ff#J
12eeL
12ff#
12eeJ
8ddL
8cc#J
=
8ddL
8ff#J
8eeL
8cc#J
2dd
=||
4b
8ddL
8bJ
4.a
8dd
=
4b
8ddL
8bJ
4.a
8dd
=
4b
8ddL
8bJ
4a
8ddL
8eeJ
!!linebreak:original
=
4ff#
8ddL
8ff#J
8eeL
8ff#J
8ddL
8cc#J
=
4b
8ddL
8bJ
4.a
8dd
=
4b
8ddL
8bJ
4a
8ddL
8eeJ
=
4ff#
8ddL
8ff#J
12eeL
12ff#
12eeJ
8ddL
8cc#J
=
8ddL
8ff#J
8eeL
8cc#J
2dd
=||
*-
